themes/asg/static/images/about-bg.svg

<svg width="1280" height="320" viewBox="0 0 1280 320" fill="none" xmlns="http://www.w3.org/2000/svg">
<g clip-path="url(#clip0)">
<path d="M1338.58 1.22723L1371.1 15.0336H1407V16.5676H1374.48L1407 30.0671V31.6012L1371.41 16.5676H1297.47L1329.69 31.908H1407V33.442H1333.06L1369.26 50.3164H1407V52.1572H1372.95L1407 68.1112V69.9521L1369.57 52.1572H1287.04L1322.63 71.1793H1407V73.3269H1326.62L1366.81 94.8035H1407V96.9511H1371.1L1407 115.973V118.121L1367.12 96.6443H1273.85L1313.73 121.189H1407V123.643H1318.03L1363.74 151.87H1407V154.938H1368.65L1407 178.869V181.937L1363.74 155.244H1256.67L1301.77 187.766H1407V191.141H1306.68L1359.45 229.799H1407V234.094H1365.28L1407 264.468V268.763L1359.75 234.094H1233.96L1285.2 279.808H1407V284.717H1291.03L1330.91 320.307H1324.47L1284.89 284.717H1146.83L1177.82 320.307H1171.38L1140.7 284.717H1002.64L1025.03 320.307H1018.59L996.808 284.717H858.748L872.248 320.307H865.805L852.612 284.717H714.552L719.154 320.307H712.712L708.416 284.717H570.356L566.061 320.307H559.618L564.22 284.717H426.16L412.968 320.307H406.525L420.024 284.717H281.964L260.182 320.307H253.739L276.135 284.717H138.075L107.395 320.307H100.952L131.939 284.717H-6.12085L-45.698 320.307H-52.1409L-12.2568 284.717H-127V279.808H-5.20044L46.3419 234.094H-79.446L-127 268.763V264.468L-85.2753 234.094H-127V229.799H-79.446L-26.6764 191.448H-127V188.073H-21.7677L23.3319 155.244H-83.7412L-127 181.937V178.869L-88.65 155.244H-127V152.176H-83.7412L-38.0281 123.95H-127V121.496H-33.7329L6.15112 96.9511H-87.1161L-127 118.428V116.28L-91.1044 97.2579H-127V95.1103H-86.8092L-46.6184 73.6338H-127V71.4861H-42.63L-7.04126 52.1572H-89.5704L-127 69.9521V68.1112L-92.9452 52.1572H-127V50.3164H-89.2637L-53.0613 33.442H-127V31.908H-49.6864L-17.4724 16.5676H-91.4113L-127 31.6012V30.0671L-94.4792 16.2608H-127V15.0336H-91.1044L-58.5836 1.22723H-127V0H1407V1.22723H1338.58ZM1294.1 16.5676H1220.16L1248.69 31.908H1326.31L1294.1 16.5676ZM379.527 121.496L394.867 96.9511H301.6L280.43 121.496H379.527ZM278.283 123.95L253.739 152.176H360.198L377.993 123.95H278.283ZM999.57 121.496L978.4 96.9511H885.133L900.473 121.496H999.57ZM902.007 123.95L919.802 152.176H1026.26L1001.72 123.95H902.007ZM400.389 94.8035H493.043L501.326 73.3269H413.888L400.389 94.8035ZM409.9 73.0201H322.462L303.747 94.4967H396.401L409.9 73.0201ZM497.031 94.8035H589.685L592.446 73.3269H505.008L497.031 94.8035ZM590.605 121.496H689.702L686.634 96.9511H593.366L590.605 121.496ZM690.315 94.8035H782.969L774.992 73.3269H687.554L690.315 94.8035ZM786.957 94.8035H879.611L866.418 73.3269H778.98L786.957 94.8035ZM883.599 94.8035H976.253L957.538 73.3269H870.1L883.599 94.8035ZM980.241 94.8035H1072.89L1048.96 73.3269H961.526L980.241 94.8035ZM880.838 96.9511H787.571L796.775 121.496H895.871L880.838 96.9511ZM783.889 96.9511H690.622L693.69 121.496H792.786L783.889 96.9511ZM689.702 123.95H589.992L586.617 152.176H693.076L689.702 123.95ZM589.378 96.9511H496.111L487.214 121.496H586.31L589.378 96.9511ZM492.122 96.9511H398.855L383.822 121.496H482.918L492.122 96.9511ZM318.474 73.0201H231.036L207.105 94.4967H299.759L318.474 73.0201ZM320.314 71.1793L336.882 52.1572H254.352L233.183 71.1793H320.314ZM324.303 71.1793H411.127L423.092 52.1572H340.563L324.303 71.1793ZM415.116 71.1793H501.94L509.303 52.1572H426.774L415.116 71.1793ZM505.622 71.1793H592.446L594.9 52.1572H512.371L505.622 71.1793ZM593.673 94.8035H686.327L683.872 73.3269H596.434L593.673 94.8035ZM687.247 71.1793H774.072L767.015 52.1572H684.486L687.247 71.1793ZM778.06 71.1793H864.884L853.226 52.1572H770.697L778.06 71.1793ZM868.873 71.1793H955.697L939.13 52.1572H856.601L868.873 71.1793ZM959.686 71.1793H1046.51L1025.34 52.1572H942.812L959.686 71.1793ZM1050.5 71.1793H1137.32L1111.24 52.1572H1028.72L1050.5 71.1793ZM1052.65 73.0201L1076.88 94.4967H1169.54L1140.08 73.0201H1052.65ZM1075.35 96.9511H982.082L1003.56 121.496H1102.65L1075.35 96.9511ZM1006.01 123.95L1030.86 152.176H1137.02L1105.72 123.95H1006.01ZM1028.72 155.244H921.642L942.198 188.073H1056.94L1028.72 155.244ZM917.04 155.244H809.967L822.239 188.073H936.982L917.04 155.244ZM915.2 152.176L897.712 123.95H798.002L808.74 152.176H915.2ZM793.707 123.95H693.997L697.678 152.176H804.138L793.707 123.95ZM693.383 155.244H586.31L582.322 188.073H697.065L693.383 155.244ZM585.696 123.95H485.986L475.555 152.176H582.015L585.696 123.95ZM481.998 123.95H382.288L364.8 152.176H471.26L481.998 123.95ZM362.96 155.244L342.711 188.073H457.454L469.726 155.244H362.96ZM358.358 155.244H251.284L223.059 188.073H337.802L358.358 155.244ZM273.988 123.95H174.278L142.984 152.176H249.444L273.988 123.95ZM276.135 121.496L297.611 96.9511H204.344L177.039 121.496H276.135ZM227.354 73.0201H139.916L110.463 94.4967H203.117L227.354 73.0201ZM229.502 71.1793L250.978 52.1572H168.448L142.37 71.1793H229.502ZM190.845 33.442H112.918L85.6123 50.3164H167.528L190.845 33.442ZM171.21 50.3164H253.125L272.147 33.442H194.22L171.21 50.3164ZM256.807 50.3164H338.722L353.756 33.442H275.828L256.807 50.3164ZM342.404 50.3164H424.32L435.058 33.442H357.13L342.404 50.3164ZM427.694 50.3164H509.61L516.053 33.442H438.126L427.694 50.3164ZM513.292 50.3164H595.207L597.355 33.442H519.428L513.292 50.3164ZM596.434 71.1793H683.259L681.111 52.1572H598.582L596.434 71.1793ZM684.486 50.3164H766.402L760.266 33.442H682.338L684.486 50.3164ZM770.083 50.3164H851.999L841.568 33.442H763.64L770.083 50.3164ZM855.68 50.3164H937.596L922.87 33.442H844.942L855.68 50.3164ZM941.278 50.3164H1023.19L1004.17 33.442H926.244L941.278 50.3164ZM1026.87 50.3164H1108.79L1085.47 33.442H1007.55L1026.87 50.3164ZM1112.47 50.3164H1194.39L1167.08 33.442H1089.16L1112.47 50.3164ZM1198.07 50.3164H1279.98L1248.38 33.442H1170.46L1198.07 50.3164ZM1197.46 52.1572H1114.93L1141 71.1793H1228.14L1197.46 52.1572ZM1144.07 73.0201L1173.83 94.4967H1266.18L1231.51 73.0201H1144.07ZM1172.6 96.9511H1079.34L1106.95 121.496H1206.05L1172.6 96.9511ZM1110.02 123.95L1141.62 152.176H1248.08L1209.73 123.95H1110.02ZM1140.39 155.244H1033.32L1061.85 188.073H1176.9L1140.39 155.244ZM1065.22 191.448L1098.97 229.799H1223.53L1180.58 191.448H1065.22ZM1060.01 191.448H944.346L968.583 229.799H1093.45L1060.01 191.448ZM939.437 191.448H823.773L838.193 229.799H963.06L939.437 191.448ZM818.558 191.448H702.894L707.803 229.799H832.67L818.558 191.448ZM817.33 187.766L805.365 154.938H698.292L702.587 187.766H817.33ZM697.985 191.448H582.322L577.72 229.799H702.587L697.985 191.448ZM581.708 155.244H474.635L462.67 188.073H577.413L581.708 155.244ZM461.442 191.448L447.33 229.799H572.197L577.106 191.448H461.442ZM456.227 191.448H340.563L316.94 229.799H441.807L456.227 191.448ZM335.654 191.448H219.991L186.856 229.799H311.724L335.654 191.448ZM214.775 191.448H99.1116L56.1595 229.799H181.027L214.775 191.448ZM217.843 187.766L246.376 154.938H139.302L103.1 187.766H217.843ZM169.982 123.95H70.2723L31.9224 152.176H138.382L169.982 123.95ZM173.05 121.496L200.662 96.9511H107.395L73.954 121.496H173.05ZM135.928 73.0201H48.4896L13.8212 94.4967H106.475L135.928 73.0201ZM138.689 71.1793L164.767 52.1572H82.2375L51.5576 71.1793H138.689ZM109.543 33.442H31.6156L0.0151367 50.3164H81.9308L109.543 33.442ZM111.997 31.6012L136.848 16.2608H62.9092L34.3768 31.6012H111.997ZM115.372 31.6012H192.992L213.855 16.2608H139.916L115.372 31.6012ZM196.367 31.6012H273.988L291.168 16.2608H217.23L196.367 31.6012ZM277.362 31.6012H354.983L368.482 16.2608H294.543L277.362 31.6012ZM358.358 31.6012H435.978L445.489 16.2608H371.55L358.358 31.6012ZM439.353 31.6012H516.973L522.802 16.2608H448.864L439.353 31.6012ZM520.348 31.6012H597.968L599.809 16.2608H525.87L520.348 31.6012ZM598.889 50.3164H680.804L678.657 33.442H600.73L598.889 50.3164ZM682.032 31.6012H759.652L754.13 16.2608H680.191L682.032 31.6012ZM763.027 31.6012H840.647L831.136 16.2608H757.198L763.027 31.6012ZM844.022 31.6012H921.642L908.45 16.2608H834.511L844.022 31.6012ZM925.017 31.6012H1002.64L985.764 16.2608H911.825L925.017 31.6012ZM1006.01 31.6012H1083.63L1062.77 16.2608H988.832L1006.01 31.6012ZM1087.01 31.6012H1164.63L1140.08 16.2608H1066.15L1087.01 31.6012ZM1168 31.6012H1245.32L1216.78 16.2608H1143.15L1168 31.6012ZM1365.58 50.3164L1329.69 33.442H1251.76L1283.67 50.3164H1365.58ZM1283.36 52.1572H1200.83L1231.82 71.1793H1318.95L1283.36 52.1572ZM1362.82 94.8035L1322.63 73.3269H1235.19L1270.17 94.8035H1362.82ZM1269.86 96.9511H1176.59L1210.34 121.496H1309.44L1269.86 96.9511ZM1359.14 152.176L1313.73 123.95H1214.02L1252.68 152.176H1359.14ZM1252.07 155.244H1144.99L1181.81 188.073H1296.86L1252.07 155.244ZM1353.92 229.799L1301.46 191.448H1185.8L1229.06 229.799H1353.92ZM1142.54 279.808H1279.37L1228.44 234.094H1102.65L1142.54 279.808ZM999.876 279.808H1136.71L1097.13 234.094H971.344L999.876 279.808ZM857.214 279.808H994.047L965.822 234.094H840.034L857.214 279.808ZM714.246 279.808H851.078L834.204 234.094H708.416L714.246 279.808ZM708.416 279.808L702.894 234.094H577.106L571.584 279.808H708.416ZM565.754 279.808L571.584 234.094H445.796L428.922 279.808H565.754ZM422.786 279.808L440.273 234.094H314.485L286.26 279.808H422.786ZM280.124 279.808L308.963 234.094H183.175L143.598 279.808H280.124ZM0.628784 279.808H137.462L177.652 234.094H51.8644L0.628784 279.808ZM-73.9237 229.799H50.944L94.2028 191.448H-21.4608L-73.9237 229.799ZM-16.8589 187.766H97.8843L134.7 154.938H27.6272L-16.8589 187.766ZM-79.1392 152.176H27.3203L65.9772 123.95H-33.7329L-79.1392 152.176ZM-29.4376 121.496H69.6588L103.407 96.9511H10.1396L-29.4376 121.496ZM-82.8208 94.8035H9.83276L44.808 73.3269H-42.63L-82.8208 94.8035ZM-38.9484 71.1793H47.876L78.8628 52.1572H-3.66638L-38.9484 71.1793ZM-85.582 50.3164H-3.66638L28.2407 33.442H-49.6864L-85.582 50.3164ZM-46.3116 31.6012H31.3088L59.8412 16.2608H-14.0977L-46.3116 31.6012ZM-55.5156 1.22723L-88.0364 15.0336H-14.4044L14.7416 1.22723H-55.5156ZM17.8096 1.22723L-11.3364 15.0336H62.2957L88.0668 1.22723H17.8096ZM91.1348 1.22723L65.3636 15.0336H138.996L161.392 1.22723H91.1348ZM164.767 1.22723L142.677 15.0336H216.309L235.024 1.22723H164.767ZM238.092 1.22723L219.377 15.0336H293.009L308.349 1.22723H238.092ZM311.417 1.22723L296.077 15.0336H369.709L381.674 1.22723H311.417ZM384.742 1.22723L372.777 15.0336H446.409L455 1.22723H384.742ZM458.068 1.22723L449.477 15.0336H523.109L528.325 1.22723H458.068ZM531.393 1.22723L526.177 15.0336H599.809L601.65 1.22723H531.393ZM675.282 1.22723H605.025L603.491 15.0336H677.123L675.282 1.22723ZM603.184 16.5676L601.343 31.908H678.964L677.123 16.5676H603.184ZM678.35 1.22723L679.884 15.0336H753.516L748.3 1.22723H678.35ZM751.675 1.22723L756.891 15.0336H830.523L821.932 1.22723H751.675ZM825 1.22723L833.591 15.0336H907.223L895.258 1.22723H825ZM898.326 1.22723L910.291 15.0336H983.923L968.583 1.22723H898.326ZM971.651 1.22723L986.991 15.0336H1060.62L1041.91 1.22723H971.651ZM1044.98 1.22723L1064 15.0336H1137.63L1115.54 1.22723H1044.98ZM1118.61 1.22723L1141 15.0336H1214.64L1188.87 1.22723H1118.61ZM1191.93 1.22723L1217.7 15.0336H1291.34L1262.19 1.22723H1191.93ZM1265.26 1.22723L1294.4 15.0336H1368.04L1335.52 1.22723H1265.26Z" fill="url(#paint0_linear)"/>
</g>
<defs>
<linearGradient id="paint0_linear" x1="-6.65672e-05" y1="152.836" x2="1281" y2="152.836" gradientUnits="userSpaceOnUse">
<stop offset="0.0220994" stop-color="#07070A"/>
<stop offset="0.502762" stop-color="#000F76"/>
<stop offset="1" stop-color="#070709"/>
</linearGradient>
<clipPath id="clip0">
<rect width="1534" height="320" fill="white" transform="matrix(-1 0 0 1 1407 0)"/>
</clipPath>
</defs>
</svg>

<svg width="1280" height="320" fill="none" xmlns="http://www.w3.org/2000/svg"><g clip-path="url(#clip0)"><path d="M1338.58 1.227l32.52 13.807h35.9v1.534h-32.52l32.52 13.5V31.6l-35.59-15.033h-73.94l32.22 15.34H1407v1.534h-73.94l36.2 16.874H1407v1.841h-34.05L1407 68.111v1.841l-37.43-17.795h-82.53l35.59 19.022H1407v2.148h-80.38l40.19 21.477H1407v2.147h-35.9l35.9 19.022v2.148l-39.88-21.477h-93.27l39.88 24.545H1407v2.454h-88.97l45.71 28.227H1407v3.068h-38.35l38.35 23.931v3.068l-43.26-26.693h-107.07l45.1 32.522H1407v3.375h-100.32l52.77 38.658H1407v4.295h-41.72l41.72 30.374v4.295l-47.25-34.669h-125.79l51.24 45.714H1407v4.909h-115.97l39.88 35.59h-6.44l-39.58-35.59h-138.06l30.99 35.59h-6.44l-30.68-35.59h-138.06l22.39 35.59h-6.44l-21.782-35.59h-138.06l13.5 35.59h-6.443l-13.193-35.59h-138.06l4.602 35.59h-6.442l-4.296-35.59h-138.06l-4.295 35.59h-6.443l4.602-35.59H426.16l-13.192 35.59h-6.443l13.499-35.59h-138.06l-21.782 35.59h-6.443l22.396-35.59h-138.06l-30.68 35.59h-6.443l30.987-35.59H-6.121l-39.577 35.59h-6.443l39.884-35.59H-127v-4.909H-5.2l51.542-45.714H-79.446L-127 268.763v-4.295l41.725-30.374H-127v-4.295h47.554l52.77-38.351H-127v-3.375h105.232l45.1-32.829H-83.741L-127 181.937v-3.068l38.35-23.625H-127v-3.068h43.259l45.713-28.226H-127v-2.454h93.267L6.151 96.951h-93.267L-127 118.428v-2.148l35.896-19.022H-127V95.11h40.19l40.192-21.476H-127v-2.148h84.37l35.589-19.329h-82.53L-127 69.952v-1.84l34.055-15.955H-127v-1.84h37.736l36.203-16.875H-127v-1.534h77.314l32.214-15.34h-73.94L-127 31.6v-1.534l32.52-13.806H-127v-1.227h35.896l32.52-13.807H-127V0h1534v1.227h-68.42zm-44.48 15.34h-73.94l28.53 15.341h77.62l-32.21-15.34zm-914.573 104.93l15.34-24.545H301.6l-21.17 24.545h99.097zm-101.244 2.454l-24.544 28.226h106.459l17.795-28.226h-99.71zm721.287-2.454L978.4 96.951h-93.267l15.34 24.545h99.097zm-97.563 2.454l17.795 28.226h106.458l-24.54-28.226h-99.713zM400.389 94.803h92.654l8.283-21.476h-87.438l-13.499 21.477zM409.9 73.02h-87.438l-18.715 21.477h92.654L409.9 73.02zm87.131 21.784h92.654l2.761-21.477h-87.438l-7.977 21.477zm93.574 26.692h99.097l-3.068-24.545h-93.268l-2.761 24.545zm99.71-26.692h92.654l-7.977-21.477h-87.438l2.761 21.477zm96.642 0h92.654l-13.193-21.477H778.98l7.977 21.477zm96.642 0h92.654l-18.715-21.477H870.1l13.499 21.477zm96.642 0h92.649l-23.93-21.477h-87.434l18.715 21.477zm-99.403 2.147h-93.267l9.204 24.545h99.096l-15.033-24.545zm-96.949 0h-93.267l3.068 24.545h99.096l-8.897-24.545zm-94.187 26.999h-99.71l-3.375 28.226h106.459l-3.374-28.226zM589.378 96.951h-93.267l-8.897 24.545h99.096l3.068-24.545zm-97.256 0h-93.267l-15.033 24.545h99.096l9.204-24.545zm-173.648-23.93h-87.438l-23.931 21.476h92.654l18.715-21.477zm1.84-1.842l16.568-19.022h-82.53L233.183 71.18h87.131zm3.989 0h86.824l11.965-19.022h-82.529l-16.26 19.022zm90.813 0h86.824l7.363-19.022h-82.529L415.116 71.18zm90.506 0h86.824l2.454-19.022h-82.529l-6.749 19.022zm88.051 23.624h92.654l-2.455-21.476h-87.438l-2.761 21.477zm93.574-23.624h86.825l-7.057-19.022h-82.529l2.761 19.022zm90.813 0h86.824l-11.658-19.022h-82.529l7.363 19.022zm90.813 0h86.824L939.13 52.157h-82.529l12.272 19.022zm90.813 0h86.824l-21.17-19.022h-82.528l16.874 19.022zm90.814 0h86.82l-26.08-19.022h-82.52l21.78 19.022zm2.15 1.841l24.23 21.477h92.66l-29.46-21.477h-87.43zm22.7 23.931h-93.268l21.478 24.545h99.09l-27.3-24.545zm-69.34 26.999l24.85 28.226h106.16l-31.3-28.226h-99.71zm22.71 31.294H921.642l20.556 32.829h114.742l-28.22-32.829zm-111.68 0H809.967l12.272 32.829h114.743l-19.942-32.829zm-1.84-3.068l-17.488-28.226h-99.71l10.738 28.226H915.2zM793.707 123.95h-99.71l3.681 28.226h106.46l-10.431-28.226zm-100.324 31.294H586.31l-3.988 32.829h114.743l-3.682-32.829zM585.696 123.95h-99.71l-10.431 28.226h106.46l3.681-28.226zm-103.698 0h-99.71L364.8 152.176h106.46l10.738-28.226zM362.96 155.244l-20.249 32.829h114.743l12.272-32.829H362.96zm-4.602 0H251.284l-28.225 32.829h114.743l20.556-32.829zm-84.37-31.294h-99.71l-31.294 28.226h106.46l24.544-28.226zm2.147-2.454l21.476-24.545h-93.267l-27.305 24.545h99.096zM227.354 73.02h-87.438l-29.453 21.477h92.654l24.237-21.477zm2.148-1.84l21.476-19.023h-82.53L142.37 71.18h87.132zm-38.657-37.738h-77.927L85.612 50.316h81.916l23.317-16.874zM171.21 50.316h81.915l19.022-16.874H194.22l-23.01 16.874zm85.597 0h81.915l15.034-16.874h-77.928l-19.021 16.874zm85.597 0h81.916l10.738-16.874H357.13l-14.726 16.874zm85.29 0h81.916l6.443-16.874h-77.927l-10.432 16.874zm85.598 0h81.915l2.148-16.874h-77.927l-6.136 16.874zm83.142 20.863h86.825l-2.148-19.022h-82.529l-2.148 19.022zm88.052-20.863h81.916l-6.136-16.874h-77.928l2.148 16.874zm85.597 0h81.916l-10.431-16.874H763.64l6.443 16.874zm85.597 0h81.916L922.87 33.442h-77.928l10.738 16.874zm85.598 0h81.912l-19.02-16.874h-77.926l15.034 16.874zm85.592 0h81.92l-23.32-16.874h-77.92l19.32 16.874zm85.6 0h81.92l-27.31-16.874h-77.92l23.31 16.874zm85.6 0h81.91l-31.6-16.874h-77.92l27.61 16.874zm-.61 1.841h-82.53L1141 71.18h87.14l-30.68-19.022zm-53.39 20.863l29.76 21.477h92.35l-34.67-21.477h-87.44zm28.53 23.931h-93.26l27.61 24.545h99.1l-33.45-24.545zm-62.58 26.999l31.6 28.226h106.46l-38.35-28.226h-99.71zm30.37 31.294h-107.07l28.53 32.829h115.05l-36.51-32.829zm-75.17 36.204l33.75 38.351h124.56l-42.95-38.351h-115.36zm-5.21 0H944.346l24.237 38.351h124.867l-33.44-38.351zm-120.573 0H823.773l14.42 38.351H963.06l-23.623-38.351zm-120.879 0H702.894l4.909 38.351H832.67l-14.112-38.351zm-1.228-3.682l-11.965-32.828H698.292l4.295 32.828H817.33zm-119.345 3.682H582.322l-4.602 38.351h124.867l-4.602-38.351zm-116.277-36.204H474.635l-11.965 32.829h114.743l4.295-32.829zm-120.266 36.204l-14.112 38.351h124.867l4.909-38.351H461.442zm-5.215 0H340.563l-23.623 38.351h124.867l14.42-38.351zm-120.573 0H219.991l-33.135 38.351h124.868l23.93-38.351zm-120.879 0H99.112L56.16 229.799h124.867l33.748-38.351zm3.068-3.682l28.533-32.828H139.302L103.1 187.766h114.743zm-47.861-63.816h-99.71l-38.35 28.226h106.46l31.6-28.226zm3.068-2.454l27.612-24.545h-93.267l-33.441 24.545h99.096zM135.928 73.02H48.49L13.82 94.497h92.654l29.453-21.477zm2.761-1.84l26.078-19.023h-82.53L51.557 71.18h87.132zm-29.146-37.738H31.616L.016 50.316H81.93l27.612-16.874zm2.454-1.84l24.851-15.341H62.909L34.377 31.6h77.62zm3.375 0h77.62l20.863-15.341h-73.939L115.372 31.6zm80.995 0h77.621l17.18-15.341H217.23L196.367 31.6zm80.995 0h77.621l13.499-15.341h-73.939L277.362 31.6zm80.996 0h77.62l9.511-15.341H371.55L358.358 31.6zm80.995 0h77.62l5.829-15.341h-73.938l-9.511 15.34zm80.995 0h77.62l1.841-15.341H525.87l-5.522 15.34zm78.541 18.714h81.915l-2.147-16.874H600.73l-1.841 16.874zm83.143-18.715h77.62l-5.522-15.34h-73.939l1.841 15.34zm80.995 0h77.62l-9.511-15.34h-73.938l5.829 15.34zm80.995 0h77.62l-13.192-15.34h-73.939l9.511 15.34zm80.995 0h77.623l-16.876-15.34h-73.939l13.192 15.34zm80.993 0h77.62l-20.86-15.34h-73.938l17.178 15.34zm81 0h77.62l-24.55-15.34h-73.93l20.86 15.34zm80.99 0h77.32l-28.54-15.34h-73.63L1168 31.6zm197.58 18.715l-35.89-16.874h-77.93l31.91 16.874h81.91zm-82.22 1.841h-82.53l30.99 19.022h87.13l-35.59-19.022zm79.46 42.647l-40.19-21.477h-87.44l34.98 21.477h92.65zm-92.96 2.147h-93.27l33.75 24.545h99.1l-39.58-24.545zm89.28 55.225l-45.41-28.226h-99.71l38.66 28.226h106.46zm-107.07 3.068h-107.08l36.82 32.829h115.05l-44.79-32.829zm101.85 74.555l-52.46-38.351H1185.8l43.26 38.351h124.86zm-211.38 50.009h136.83l-50.93-45.714h-125.79l39.89 45.714zm-142.664 0h136.834l-39.58-45.714H971.344l28.532 45.714zm-142.662 0h136.833l-28.225-45.714H840.034l17.18 45.714zm-142.968 0h136.832l-16.874-45.714H708.416l5.83 45.714zm-5.83 0l-5.522-45.714H577.106l-5.522 45.714h136.832zm-142.662 0l5.83-45.714H445.796l-16.874 45.714h136.832zm-142.968 0l17.487-45.714H314.485l-28.225 45.714h136.526zm-142.662 0l28.839-45.714H183.175l-39.577 45.714h136.526zm-279.495 0h136.833l40.19-45.714H51.864L.63 279.808zm-74.553-50.009H50.944l43.259-38.351H-21.461l-52.463 38.351zm57.065-42.033H97.884l36.816-32.828H27.627l-44.486 32.828zm-62.28-35.59H27.32l38.656-28.226h-99.71l-45.406 28.226zm49.701-30.68H69.66l33.748-24.545H10.14l-39.578 24.545zM-82.82 94.804H9.833l34.975-21.477H-42.63l-40.19 21.477zm43.873-23.625h86.824l30.987-19.022h-82.53L-38.947 71.18zm-46.634-20.863h81.916L28.24 33.442h-77.927l-35.896 16.874zm39.27-18.715h77.62l28.533-15.34h-73.939L-46.312 31.6zm-9.204-30.374l-32.52 13.807h73.632L14.742 1.227h-70.258zm73.326 0l-29.146 13.807h73.632l25.77-13.807H17.81zm73.325 0L65.364 15.034h73.632l22.396-13.807H91.135zm73.632 0l-22.09 13.807h73.632l18.715-13.807h-70.257zm73.325 0l-18.715 13.807h73.632l15.34-13.807h-70.257zm73.325 0l-15.34 13.807h73.632l11.965-13.807h-70.257zm73.325 0l-11.965 13.807h73.632L455 1.227h-70.258zm73.326 0l-8.591 13.807h73.632l5.216-13.807h-70.257zm73.325 0l-5.216 13.807h73.632l1.841-13.807h-70.257zm143.889 0h-70.257l-1.534 13.807h73.632l-1.841-13.807zm-72.098 15.34l-1.841 15.341h77.621l-1.841-15.34h-73.939zm75.166-15.34l1.534 13.807h73.632L748.3 1.227h-69.95zm73.325 0l5.216 13.807h73.632l-8.591-13.807h-70.257zm73.325 0l8.591 13.807h73.632L895.258 1.227H825zm73.326 0l11.965 13.807h73.632l-15.34-13.807h-70.257zm73.325 0l15.34 13.807h73.629l-18.71-13.807h-70.259zm73.329 0L1064 15.034h73.63l-22.09-13.807h-70.56zm73.63 0L1141 15.034h73.64l-25.77-13.807h-70.26zm73.32 0l25.77 13.807h73.64l-29.15-13.807h-70.26zm73.33 0l29.14 13.807h73.64l-32.52-13.807h-70.26z" fill="url(#paint0_linear)"/></g><defs><linearGradient id="paint0_linear" x1="0" y1="152.836" x2="1281" y2="152.836" gradientUnits="userSpaceOnUse"><stop offset=".022" stop-color="#07070A"/><stop offset=".503" stop-color="#000F76"/><stop offset="1" stop-color="#070709"/></linearGradient><clipPath id="clip0"><path fill="#fff" transform="matrix(-1 0 0 1 1407 0)" d="M0 0h1534v320H0z"/></clipPath></defs></svg>
